!! 00048] TT[KA
!! NN
!!!OTL: Hong toujin
!!!ARE: Xinjiang, Tashikurgan (SÅdwesten)
!! Ethnic Group: Tajike (Tatschiken)
!! IV, 539
!!!SCT: C0436
!!!YEM: Copyright 1995, estate of Helmut Schaffrath.
**kern
*ICvox
*Ivox
!! 3+4 metric grouping
*M7/8
*k[f#c#g#]
*A:
{4e
8ee
4cc#
4a
=1
4a
8a
4g#
4a
=2
4a
8f#
2e}
=3
{4e
8a
4g#
4a
=4
4b
8a
4g#
4a
=5
4a
8f#
2e}
=6
{4e
8ee
4cc#
4a
=7
4a
8a
4g#
4a
=8
4a
8f#
2e}
=9
{4e
8a
4g#
4a
=10
4b
8a
4g#
4a
=11
4a
8f#
2e}
==
!!!AGN: Gewuqu. Sixiang
!! Diese Lieder sind persich-arabisch beeinflusst; z.B. gibt es den
!!    7/8-Takt. Auch in der UDSSR
!!    Vereinzelt Verzierungen, Glissandi. Vorspiel (gesprochen) weggelassen.
!!!ONB: ESAC (Essen Associative Code) Database: CHINA
!!!AMT: irregular
!!!AIN: vox
!!!EED: Helmut Schaffrath
!!!EEV: 1.0
*-
